X: 724
T: the Contradiction Reel   #2
R: reel
%S: s:6 b:32(8+8+8+8)
B: Francis O'Neill: "The Dance Music of Ireland" (1907) #724
Z: Frank Nordberg - http://www.musicaviva.com
F: http://www.musicaviva.com/abc/tunes/ireland/oneill-1001/0724/oneill-1001-0724-1.abc
M: C|
L: 1/8
K: A
"^A"[|] e !segno!\
|: c2(3({d}cBA) (BE)(ED) | CEAc dfed | c2(3({d}cBA) GAB [1 c | defg afed :|
|[2 g | afec A/A/AA "^B"|: g | aA A/A/A aAcA | GBEB [1 GBEg | (aA) A/A/A aAcA |
| GBEB cAA :|[2 EBEg | agfe fedc | BEFG A2  "^C"|[| e2 | ae(c'e) ae(c'e) |
| be(d'e) be(d'e) | c'e(e'e) c'e(e'e) | dcAB (EA)A2 || aAc'A aAc'A | bAd'A bAd'A |
| c'Ae'A c'Ae'A | dcBA (EA)A2 "^D"|:: cefe cefe |[1 dcBA (BE)E2 :|[2 fagb afed :|
|[3 (3(fga) ec (BE)E2 | ecea fdfa | (gb)eg (ae)fe !segno!|] 
